X:37
T:Cabin of Love
C:Bill Monroe mandolin solo
S:Jim Coon to CoMandoList TOW
M:4/4
L:1/8
Q:2/4=120
K:A
EFAA|"A"[aA][a2A2][aA] [aA][fA][eA][eA]|=cc2B/c/ BAAA|\
"D"DFA=c BAcB|A=ccB ccBA|!
"A"A,CEF AA2A|ce2A efec|"E"B2BB GBFG|E2[e2B2] EFAA|!
"A"[aA][fA][eA]=c BAAA|[aA][fA][eA]=c BAAA|\
"D"DFA=c BAc/B/B|=cc2B/c/ BAAF|!
"E"E2[e2B2] EFFA|Ae2=c BAFE|"A"A2AA =G2EC|A,8|!
